X: 1
T: Disconnect
C: Jeremy Kittel
R: jig
S: Roaring Jelly handout at practice 2017-1-24
S: https://thesession.org/tunes/14681
M: 6/8
L: 1/8
K: Emin
|:\
"Em" ~E2-E BE c- | c BA Bcd | "D"~D2-D AD B- | B AG F2 G |
"Em"~E2-E BE c- | c BA Bcd | "D"~D2-D Bcd |1 "Bm"DGD A2 B :|2 "Bm"~D2-D Bcd ||
|:\
"C"e2 G GFG | "D"A3 ABc | "Bm"d2 F FEF | "C"G2 A Bcd |
"C/Am"e2 G GFG | "D/Bm"A3 Adc | "Bm/C"BAG FED |1 "Em"EFG "D"ABd :|2 "D"EFG FDB, |] "Em"HE6 |]
